!!!OTL: Das Koeniglein.
!!!OTL-incipit: DAS KOENIGLEIN SCHAUET UEBER 'N ZAUN
!!!ARE: Europa, Mitteleuropa, Deutschland, Niederrhein
!!!SCT: Z1349
!!!TXL: @@DE
!!!YEM: Copyright 1995, estate of Helmut Schaffrath.
**kern	**text
*ICvox	*
*M6/8	*
*k[b-e-]	*
*B-:	*
!LO:TX:a:t=Vorſänger.	!
!LO:TX:a:t=Niederrhein.	!
{8f	Das
=1	=1
8dd	Kö-
8dd	-nig-
8cc	-lein
8dd	ſchauet
8dd	.
8cc	wohl
=2	=2
4b-	ü-
8b-	-ber'n
4b-}	Ʒaun
!LO:TX:a:t=Alle.	!
{8b-/	di-
=3	=3
8cc/	-ru-
8dd/	-di-
8ee-/	-di-
8f	-ru-
8g	-di-
8a	-di-
=4	=4
4b-/	-ra-
8b-/	-la-
4b-/}	-la!
!LO:TX:a:t=Vorſänger.	!
{8f	Wie
=5	=5
8dd	ſchön
8dd	iſt
8cc	mein
8dd	Neſt-
8dd	-chen
8cc	in
=6	=6
4b-	die-
8b-	-ſem
4b-}	Baum!
!LO:TX:a:t=Alle.	!
{8b-	di-
=7	=7
8cc/	-ru-
8dd/	-di-
8ee-/	-di-
8f	-ru-
8g	-di-
8a	-di-
=8	=8
4b-/	-ra!
8r	.
4r}	.
!LO:TX:a:t=Vorſänger.	!
{8b-	Wohl
=9	=9
4dd	hundert
8dd	.
8ddL	mächt'ge
8ccJ	.
8b-	.
=10	=10
8ff	Vögel
8ff	.
8ff	im
4ff	Ʒweig,
8r}	.
=11	=11
!LO:TX:a:t=Alle.	!
{8dd/	ru-
8cc/	-di-
8b-/	-di-
8dd/	-ru-
8cc/	-di-
8b-/	-di-
=12	=12
4cc/	-ral-
8cc/	-la-
4cc/}	-la!
!LO:TX:a:t=Vorſänger.	!
{8b-	die
=13	=13
4dd	ſiʒ-
8dd	-ʒen
8ddL	nicht
8ccJ	.
8b-	ſo
=14	=14
8ff	ſicher
8ff	.
8ff	und
4ff}	weich,
!LO:TX:a:t=Alle.	!
{8dd/	di-
=15	=15
8cc/	-ru-
8dd/	-di-
8ee-/	-di-
8f	-ru-
8g	-di-
8a	-di-
=16	=16
4b-/	-ra!
8r	.
4r}	.
==	==
!!!AGN: Zech -, Schalks - Lied
!!!ONB: ESAC (Essen Associative Code) Database: ZUCCAL
!!!AMT: compound duple
!!!AIN: vox
!!!EED: Helmut Schaffrath
!!!EEV: 1.0
!!!GTL: VIII. Zech- und Schalks-Lieder.
!!!URL-scan: https://www.digitale-sammlungen.de/de/view/bsb11160573?page=639
!!!ENC: Anna Maria Matuszewska
!!!EEV: 2025/02/07
*-	*-
